src/assets/cm-logo.svg

<svg viewBox="0 0 840 878" version="1.1" xmlns="http://www.w3.org/2000/svg" xmlns:xlink="http://www.w3.org/1999/xlink">
    <defs>
        <linearGradient x1="8%" y1="55%" x2="93%" y2="60%" id="linearGradient-1">
            <stop stop-color="#F9482D" offset="0%"></stop>
            <stop stop-color="#FDA021" offset="100%"></stop>
        </linearGradient>
        <linearGradient x1="4%" y1="50%" x2="53%" y2="95%" id="linearGradient-4">
            <stop stop-color="#13BF79" offset="0%"></stop>
            <stop stop-color="#1BCB91" offset="51%"></stop>
            <stop stop-color="#0DC98D" offset="100%"></stop>
        </linearGradient>
        <filter x="-2.2%" y="-3.7%" width="104.4%" height="107.3%" filterUnits="objectBoundingBox" id="filter-3">
            <feMorphology radius="10" operator="erode" in="SourceAlpha" result="shadowSpreadInner1"></feMorphology>
            <feGaussianBlur stdDeviation="10" in="shadowSpreadInner1" result="shadowBlurInner1"></feGaussianBlur>
            <feOffset dx="0" dy="1" in="shadowBlurInner1" result="shadowOffsetInner1"></feOffset>
            <feComposite in="shadowOffsetInner1" in2="SourceAlpha" operator="arithmetic" k2="-1" k3="1" result="shadowInnerInner1"></feComposite>
            <feColorMatrix values="0 0 0 0 0.772560009   0 0 0 0 0.0381422062   0 0 0 0 0.0381422062  0 0 0 0.5 0" type="matrix" in="shadowInnerInner1"></feColorMatrix>
        </filter>
        <filter x="-1.7%" y="-1.7%" width="103.4%" height="103.4%" filterUnits="objectBoundingBox" id="filter-6">
            <feMorphology radius="10" operator="erode" in="SourceAlpha" result="shadowSpreadInner1"></feMorphology>
            <feGaussianBlur stdDeviation="10" in="shadowSpreadInner1" result="shadowBlurInner1"></feGaussianBlur>
            <feOffset dx="0" dy="0" in="shadowBlurInner1" result="shadowOffsetInner1"></feOffset>
            <feComposite in="shadowOffsetInner1" in2="SourceAlpha" operator="arithmetic" k2="-1" k3="1" result="shadowInnerInner1"></feComposite>
            <feColorMatrix values="0 0 0 0 0.00480685836   0 0 0 0 0.546025815   0 0 0 0 0.315342325  0 0 0 0.6 0" type="matrix" in="shadowInnerInner1"></feColorMatrix>
        </filter>
        <path d="M552.87975,713.986176 C566.253377,737.950999 600.749495,737.901661 614.054517,713.898682 L731.852787,501.384235 L902.027817,800.248839 C911.592531,817.046571 932.963518,822.910091 949.76125,813.345376 C966.558983,803.780662 972.422503,782.409675 962.857788,765.611943 L761.857788,412.611943 C748.345052,388.880619 714.070614,389.077278 700.831087,412.962099 L583.339814,624.922707 L465.005855,412.874605 C451.661501,388.962239 417.263752,388.945598 403.896267,412.84504 L261.442802,667.930391 L275.442802,701.930391 L296.442802,747.930391 L434.408085,501.691314 L552.87975,713.986176 Z" id="path-2"></path>
        <path d="M583,215 C680.788987,215 772.447198,253.265946 840.831182,320.422091 C910.86608,389.199507 951,482.869214 951,583 C951,786.240788 786.240788,951 583,951 C563.670034,951 548,966.670034 548,986 C548,1005.32997 563.670034,1021 583,1021 C824.90072,1021 1021,824.90072 1021,583 C1021,463.88985 973.182184,352.286477 889.878254,270.478275 C808.5339,190.594465 699.321728,145 583,145 C341.09928,145 145,341.09928 145,583 C145,583.593101 145.015076,584.186106 145.045213,584.778441 C148.356971,649.870173 157.139597,700.995436 171.980345,738.731117 C173.923135,743.671061 178.529818,754.498388 185.800396,771.213098 C193.570381,760.860181 202.589491,752.560911 212.857726,746.315288 C223.12596,740.069666 234.361574,736.481895 246.564566,735.551976 C241.943495,724.845479 238.796485,717.36532 237.123536,713.1115 C225.560238,683.709418 217.993334,639.856905 215.001025,582.121958 C215.474738,379.284895 380.051973,215 583,215 Z" id="path-5"></path>
    </defs>
    <g transform="translate(-143.930391, -143.930391)" fill-rule="nonzero">
        <g>
            <use fill="url(#linearGradient-1)" xlink:href="#path-2"></use>
            <use fill="black" fill-opacity="1" filter="url(#filter-3)" xlink:href="#path-2"></use>
        </g>
        <g transform="translate(583.000000, 583.000000) rotate(245.000000) translate(-583.000000, -583.000000) ">
            <use fill="url(#linearGradient-4)" xlink:href="#path-5"></use>
            <use fill="black" fill-opacity="1" filter="url(#filter-6)" xlink:href="#path-5"></use>
        </g>
    </g>
</svg>

<svg viewBox="0 0 840 878" xmlns="http://www.w3.org/2000/svg" xmlns:xlink="http://www.w3.org/1999/xlink"><defs><linearGradient x1="8%" y1="55%" x2="93%" y2="60%" id="a"><stop stop-color="#F9482D" offset="0%"/><stop stop-color="#FDA021" offset="100%"/></linearGradient><linearGradient x1="4%" y1="50%" x2="53%" y2="95%" id="d"><stop stop-color="#13BF79" offset="0%"/><stop stop-color="#1BCB91" offset="51%"/><stop stop-color="#0DC98D" offset="100%"/></linearGradient><filter x="-2.2%" y="-3.7%" width="104.4%" height="107.3%" filterUnits="objectBoundingBox" id="c"><feMorphology radius="10" in="SourceAlpha" result="shadowSpreadInner1"/><feGaussianBlur stdDeviation="10" in="shadowSpreadInner1" result="shadowBlurInner1"/><feOffset dy="1" in="shadowBlurInner1" result="shadowOffsetInner1"/><feComposite in="shadowOffsetInner1" in2="SourceAlpha" operator="arithmetic" k2="-1" k3="1" result="shadowInnerInner1"/><feColorMatrix values="0 0 0 0 0.772560009 0 0 0 0 0.0381422062 0 0 0 0 0.0381422062 0 0 0 0.5 0" in="shadowInnerInner1"/></filter><filter x="-1.7%" y="-1.7%" width="103.4%" height="103.4%" filterUnits="objectBoundingBox" id="f"><feMorphology radius="10" in="SourceAlpha" result="shadowSpreadInner1"/><feGaussianBlur stdDeviation="10" in="shadowSpreadInner1" result="shadowBlurInner1"/><feOffset in="shadowBlurInner1" result="shadowOffsetInner1"/><feComposite in="shadowOffsetInner1" in2="SourceAlpha" operator="arithmetic" k2="-1" k3="1" result="shadowInnerInner1"/><feColorMatrix values="0 0 0 0 0.00480685836 0 0 0 0 0.546025815 0 0 0 0 0.315342325 0 0 0 0.6 0" in="shadowInnerInner1"/></filter><path d="M552.88 713.986c13.373 23.965 47.87 23.916 61.175-.087l117.798-212.515L902.028 800.25c9.565 16.798 30.936 22.661 47.733 13.096 16.798-9.564 22.662-30.935 13.097-47.733l-201-353c-13.513-23.731-47.787-23.535-61.027.35L583.34 624.922 465.006 412.876c-13.344-23.913-47.742-23.93-61.11-.03L261.443 667.93l14 34 21 46 137.965-246.239L552.88 713.986z" id="b"/><path d="M583 215c97.789 0 189.447 38.266 257.831 105.422C910.866 389.2 951 482.87 951 583c0 203.24-164.76 368-368 368-19.33 0-35 15.67-35 35s15.67 35 35 35c241.9 0 438-196.1 438-438 0-119.11-47.818-230.714-131.122-312.522C808.534 190.594 699.322 145 583 145c-241.9 0-438 196.1-438 438a35 35 0 0 0 .045 1.778c3.312 65.092 12.095 116.217 26.935 153.953 1.943 4.94 6.55 15.767 13.82 32.482 7.77-10.353 16.79-18.652 27.058-24.898 10.268-6.245 21.504-9.833 33.707-10.763-4.622-10.707-7.769-18.187-9.441-22.44-11.564-29.403-19.13-73.255-22.123-130.99C215.475 379.285 380.052 215 583 215z" id="e"/></defs><g><g transform="translate(-143.93 -143.93)"><use fill="url(#a)" xlink:href="#b"/><use filter="url(#c)" xlink:href="#b"/></g><g transform="rotate(-115 465.188 556.882)"><use fill="url(#d)" xlink:href="#e"/><use filter="url(#f)" xlink:href="#e"/></g></g></svg>
